images_sukapura_svg/cmd/sc_pasteonlyformula.svg

<svg viewBox="0 0 16 16" xmlns="http://www.w3.org/2000/svg">




     /&amp;amp;gt;
 <path d="m2.5 2.5c-.554 0-1 .446-1 1v11c0 .554.446 1 1 1h11c.554 0 1-.446 1-1v-11c0-.554-.460187-1.1245722-1-1h-1v1c0 .554-.446 1-1 1h-7c-.554 0-.9942233-.4460301-1-1v-1z" fill="#e2b96c" stroke="#bc974c"/><path d="m8 .5c-1.1045695 0-2 .8954305-2 2h-2.5v2h4.5 4.5v-2h-2.5c0-1.1045695-.8954305-2-2-2zm0 1c.5522847 0 1 .4477153 1 1s-.4477153 1-1 1-1-.4477153-1-1c.0002944-.03328.00225-.066524.00586-.099609.0511359-.510819.4807684-.8999361.99414-.900391z" fill="#797979" stroke="#757575"/><g transform="translate(-8 -1)"><path d="m4 3c-.554 0-1 .446-1 1v10c0 .554.446 1 1 1h8c.554 0 1-.446 1-1v-10c0-.554-.446-1-1-1z" fill="#808080" transform="translate(8 1)"/><path d="m12 5v10h8v-10z" fill="#fdf9f3"/><g fill="#0a84ff" stroke-width=".5"><path d="m15.759791 6c-.265613 0-.512566.041516-.740234.125-.227669.080273-.429371.1974385-.606446.3515625-.173913.1509132-.317807.3370405-.43164.5585938-.110672.2183423-.182247.4643769-.213868.7373046l-.042968.2275391h-.664063l-.05664.628906c-.01265.08991.0053.158867.05273.207031.04743.04495.110402.07574.189453.0918l.374028.072263-.601563 5h.488281c.170751 0 .303576-.04319.398438-.129883.09486-.08348.164715-.205665.208984-.366211l.246094-.852539.436523-3.651367h1.098607l.104493-1h-1.131811l.0332-.1894531c.01897-.1733894.0539-.3186961.104493-.4375.05376-.118804.120167-.2152114.199218-.2890625.08221-.073851.17667-.1270707.28418-.1591797s.225824-.047851.355469-.047851c.0917.0000001.174343-.00836.24707-.024414.07273-.016055.117002-.060915.132813-.1347656l.109378-.6308599c-.186562-.0577966-.378172-.0869142-.574219-.0869142z"/><path d="m15.636719 10 .821289 1.840821-1.458008 2.159179h.883789c.06025 0 .111408-.01905.153321-.05664.04191-.04028.0802-.08325.114258-.128907l.730468-1.188476.04004-.06445c.01309-.02149.02596-.04541.03906-.07227l.50293 1.325195c.02095.04834.04927.09131.08594.128907.03667.0376.08911.05664.15722.05664h.908209l-.908204-2.166991 1.292969-1.833008h-.90332c-.04715 0-.08802.01197-.12207.03613-.03405.02417-.06848.05884-.102539.104492l-.557618.938477c-.02095.02954-.04026.05933-.05859.08887-.01572.02686-.03085.05542-.04395.08496l-.447264-1.127929c-.02096-.04565-.04638-.07788-.0752-.09668-.02881-.0188-.07611-.02832-.141597-.02832z"/></g></g></svg>

<?xml version="1.0" encoding="UTF-8" standalone="no"?>
<svg
   xmlns:dc="http://purl.org/dc/elements/1.1/"
   xmlns:cc="http://creativecommons.org/ns#"
   xmlns:rdf="http://www.w3.org/1999/02/22-rdf-syntax-ns#"
   xmlns:svg="http://www.w3.org/2000/svg"
   xmlns="http://www.w3.org/2000/svg"
   xmlns:sodipodi="http://sodipodi.sourceforge.net/DTD/sodipodi-0.dtd"
   xmlns:inkscape="http://www.inkscape.org/namespaces/inkscape"
   viewBox="0 0 16 16"
   version="1.1"
   id="svg6"
   sodipodi:docname="sc_pasteonlyformula.svg"
   inkscape:version="0.92.3 (unknown)"
   inkscape:export-filename="/home/rizmut/Dokumen/Rizmut/Github/libreoffice-style-colibrex/images_colibrex/cmd/sc_pasteonlyformula.png"
   inkscape:export-xdpi="96"
   inkscape:export-ydpi="96"><metadata
   id="metadata12">
  <rdf:RDF>
    <cc:Work
       rdf:about="">
      <dc:format>image/svg+xml</dc:format>
      <dc:type
         rdf:resource="http://purl.org/dc/dcmitype/StillImage" />
      <dc:title></dc:title>
    </cc:Work>
  </rdf:RDF>
</metadata>
<defs
   id="defs10" />
<sodipodi:namedview
   pagecolor="#ffffff"
   bordercolor="#666666"
   borderopacity="1"
   objecttolerance="10"
   gridtolerance="10"
   guidetolerance="10"
   inkscape:pageopacity="0"
   inkscape:pageshadow="2"
   inkscape:window-width="1366"
   inkscape:window-height="706"
   id="namedview8"
   showgrid="true"
   inkscape:snap-smooth-nodes="true"
   inkscape:zoom="3.6875"
   inkscape:cx="3.6917783"
   inkscape:cy="-3.269173"
   inkscape:window-x="0"
   inkscape:window-y="0"
   inkscape:window-maximized="1"
   inkscape:current-layer="g896">
  <inkscape:grid
     type="xygrid"
     id="grid822"
     spacingx="0.5"
     spacingy="0.5"
     empspacing="2" />
</sodipodi:namedview>




     /&amp;gt;
 <path
   d="m 2.5,2.5 c -0.554,0 -1,0.446 -1,1 v 11 c 0,0.554 0.446,1 1,1 h 11 c 0.554,0 1,-0.446 1,-1 v -11 c 0,-0.554 -0.460187,-1.1245722 -1,-1 h -1 v 1 c 0,0.554 -0.446,1 -1,1 h -7 c -0.554,0 -0.9942233,-0.4460301 -1,-1 v -1 z"
   id="path2"
   style="fill:#e2b96c;stroke:#bc974c;stroke-opacity:1;fill-opacity:1"
   inkscape:connector-curvature="0"
   sodipodi:nodetypes="sssssssscsssscs" />
<path
   d="m 8,0.5 c -1.1045695,0 -2,0.8954305 -2,2 H 3.5 v 2 H 8 12.5 v -2 H 10 c 0,-1.1045695 -0.8954305,-2 -2,-2 z m 0,1 c 0.5522847,0 1,0.4477153 1,1 0,0.5522847 -0.4477153,1 -1,1 -0.5522847,0 -1,-0.4477153 -1,-1 2.944e-4,-0.03328 0.00225,-0.066524 0.00586,-0.099609 C 7.0569959,1.889572 7.4866284,1.5004549 8,1.5 Z"
   id="path4"
   style="fill:#797979;fill-opacity:1;stroke:#757575;stroke-opacity:1"
   inkscape:connector-curvature="0"
   sodipodi:nodetypes="scccccccscssccc" />
<g
   transform="translate(-8,-1)"
   id="g10">
  <g
     id="g896">
    <path
       style="opacity:1;fill:#808080;fill-opacity:1;stroke:none;stroke-width:2;stroke-linecap:round;stroke-linejoin:round;stroke-miterlimit:4;stroke-dasharray:none;stroke-opacity:1"
       d="M 4,3 C 3.446,3 3,3.446 3,4 v 10 c 0,0.554 0.446,1 1,1 h 8 c 0.554,0 1,-0.446 1,-1 V 4 C 13,3.446 12.554,3 12,3 Z"
       transform="translate(8,1)"
       id="rect816"
       inkscape:connector-curvature="0" />
    <path
       stroke-miterlimit="4"
       id="rect818"
       d="m 12,5 v 10 h 8 V 5 Z"
       inkscape:connector-curvature="0"
       style="opacity:1;fill:#fdf9f3;fill-opacity:1;stroke:none;stroke-width:2;stroke-linecap:round;stroke-linejoin:round;stroke-miterlimit:4;stroke-dasharray:none;stroke-opacity:1" />
    <path
       style="fill:#0a84ff;stroke-width:0.5;fill-opacity:1"
       inkscape:connector-curvature="0"
       d="m 15.759791,6 c -0.265613,0 -0.512566,0.041516 -0.740234,0.125 -0.227669,0.080273 -0.429371,0.1974385 -0.606446,0.3515625 -0.173913,0.1509132 -0.317807,0.3370405 -0.43164,0.5585938 -0.110672,0.2183423 -0.182247,0.4643769 -0.213868,0.7373046 L 13.724635,8 h -0.664063 l -0.05664,0.628906 c -0.01265,0.08991 0.0053,0.158867 0.05273,0.207031 0.04743,0.04495 0.110402,0.07574 0.189453,0.0918 L 13.620143,9 13.01858,14 h 0.488281 c 0.170751,0 0.303576,-0.04319 0.398438,-0.129883 0.09486,-0.08348 0.164715,-0.205665 0.208984,-0.366211 L 14.360377,12.651367 14.7969,9 h 1.098607 L 16,8 h -1.131811 l 0.0332,-0.1894531 c 0.01897,-0.1733894 0.0539,-0.3186961 0.104493,-0.4375 0.05376,-0.118804 0.120167,-0.2152114 0.199218,-0.2890625 0.08221,-0.073851 0.17667,-0.1270707 0.28418,-0.1591797 0.10751,-0.032109 0.225824,-0.047851 0.355469,-0.047851 0.0917,1e-7 0.174343,-0.00836 0.24707,-0.024414 0.07273,-0.016055 0.117002,-0.060915 0.132813,-0.1347656 L 16.33401,6.0869142 C 16.147448,6.0291176 15.955838,6 15.759791,6 Z"
       id="path2-3"
       sodipodi:nodetypes="scccccccccccsccccccccccsccccs" />
    <path
       style="fill:#0a84ff;stroke-width:0.5;fill-opacity:1"
       inkscape:connector-curvature="0"
       d="M 15.636719,10 16.458008,11.840821 15,14 h 0.883789 c 0.06025,0 0.111408,-0.01905 0.153321,-0.05664 0.04191,-0.04028 0.0802,-0.08325 0.114258,-0.128907 l 0.730468,-1.188476 0.04004,-0.06445 c 0.01309,-0.02149 0.02596,-0.04541 0.03906,-0.07227 l 0.50293,1.325195 c 0.02095,0.04834 0.04927,0.09131 0.08594,0.128907 0.03667,0.0376 0.08911,0.05664 0.15722,0.05664 h 0.908209 L 17.707031,11.833008 19,10 h -0.90332 c -0.04715,0 -0.08802,0.01197 -0.12207,0.03613 -0.03405,0.02417 -0.06848,0.05884 -0.102539,0.104492 l -0.557618,0.938477 c -0.02095,0.02954 -0.04026,0.05933 -0.05859,0.08887 -0.01572,0.02686 -0.03085,0.05542 -0.04395,0.08496 L 16.764649,10.125 c -0.02096,-0.04565 -0.04638,-0.07788 -0.0752,-0.09668 C 16.660639,10.00952 16.613339,10 16.547852,10 Z"
       id="path2-3-6"
       sodipodi:nodetypes="cccscccccccscccscccccccsc" />
  </g>
</g>
</svg>
